src/assets/img/newgent-logomark.svg

<svg width="351" height="101" viewBox="0 0 351 101" fill="none" xmlns="http://www.w3.org/2000/svg">
<path d="M80.3879 20.097V0H60.291V20.097H40.1939V40.1939H60.291V60.2909H80.3879V40.1939H100.485V20.097H80.3879Z" fill="#3083FF"/>
<path d="M40.1939 60.2909L40.1939 40.1939L20.097 40.194V60.2909H0V80.3879H20.097V100.485H40.1939V80.3879H60.2909L60.291 60.2909L40.1939 60.2909Z" fill="#3083FF"/>
<path d="M146.785 0.00012207L156.361 25.9609H156.749L156.361 11.0155V0.00012207H164.609V35.3986H153.012L143.077 8.85667H142.717L143.104 24.1342V35.3986H134.857V0.00012207H146.785Z" fill="white"/>
<path d="M184.085 36.0905C179.14 36.0905 175.487 34.9927 173.125 32.797C170.763 30.5829 169.582 27.3632 169.582 23.1378V20.3148C169.582 16.1449 170.689 12.9528 172.903 10.7387C175.118 8.5061 178.337 7.3898 182.563 7.3898C185.404 7.3898 187.766 7.87876 189.648 8.85667C191.548 9.81613 192.969 11.1907 193.91 12.9805C194.869 14.7703 195.349 16.9198 195.349 19.4292V20.3425C195.349 21.0436 195.312 21.7632 195.238 22.5013C195.183 23.2209 195.1 23.8943 194.989 24.5217H187.351C187.424 23.4515 187.471 22.4459 187.489 21.5049C187.507 20.5455 187.517 19.6783 187.517 18.9033C187.517 17.7778 187.341 16.8368 186.991 16.0803C186.64 15.3053 186.096 14.7149 185.358 14.309C184.638 13.9031 183.707 13.7001 182.563 13.7001C180.865 13.7001 179.62 14.1614 178.826 15.0839C178.051 15.988 177.664 17.2796 177.664 18.9587V21.4496L177.719 22.3629V24.3003C177.719 25.0014 177.83 25.6657 178.051 26.293C178.291 26.9203 178.697 27.4739 179.269 27.9536C179.859 28.4149 180.662 28.7839 181.677 29.0607C182.71 29.319 184.02 29.4481 185.607 29.4481C187.286 29.4481 188.901 29.2913 190.45 28.9776C192 28.6455 193.486 28.2027 194.906 27.6492L194.214 34.0148C192.96 34.6606 191.474 35.168 189.759 35.537C188.043 35.906 186.151 36.0905 184.085 36.0905ZM174.066 24.5217V19.2908H193.273V24.5217H174.066Z" fill="white"/>
<path d="M203.01 35.3986L197.557 8.19243H206.137L209.514 29.4205H210.012L213.333 8.85667H223.684L227.061 29.4205H227.531L230.935 8.19243H239.432L233.98 35.3986H221.94L219.2 18.073L218.73 15.0286H218.342L217.844 18.073L215.104 35.3986H203.01Z" fill="white"/>
<path d="M254.621 26.9296C250.248 26.9296 246.963 26.1177 244.768 24.494C242.572 22.8703 241.474 20.5916 241.474 17.6579V17.2981C241.474 15.3053 241.917 13.6263 242.803 12.2609C243.707 10.8771 245.091 9.8069 246.954 9.05041C248.818 8.29391 251.207 7.84186 254.122 7.69425L268.653 7.03V13.0082L261.429 12.8144V13.0912C262.665 13.2942 263.68 13.6447 264.474 14.1429C265.285 14.6226 265.885 15.2592 266.273 16.0526C266.678 16.8276 266.881 17.787 266.881 18.931V19.1247C266.881 21.6525 265.876 23.5899 263.865 24.9368C261.872 26.2653 258.791 26.9296 254.621 26.9296ZM254.205 39.7992H255.036C256.364 39.7992 257.434 39.7162 258.246 39.5501C259.077 39.3841 259.685 39.135 260.073 38.8029C260.46 38.4707 260.654 38.0556 260.654 37.5574V37.5021C260.654 36.8563 260.377 36.395 259.824 36.1182C259.289 35.8415 258.477 35.6569 257.388 35.5647L249.362 34.7621L251.216 34.6514C250.663 34.7436 250.183 34.9005 249.777 35.1219C249.39 35.3433 249.076 35.62 248.836 35.9522C248.615 36.2843 248.504 36.6902 248.504 37.1699V37.2253C248.504 37.7788 248.707 38.2493 249.113 38.6368C249.519 39.0243 250.137 39.3103 250.967 39.4948C251.816 39.6977 252.895 39.7992 254.205 39.7992ZM253.79 45.9988C251.06 45.9988 248.725 45.7774 246.788 45.3346C244.869 44.9102 243.412 44.2275 242.415 43.2865C241.419 42.3455 240.921 41.1 240.921 39.5501V39.4394C240.921 38.3877 241.151 37.5021 241.613 36.7825C242.074 36.0629 242.738 35.5001 243.605 35.0942C244.472 34.6883 245.487 34.4392 246.65 34.3469V34.0701C245.229 33.8118 244.131 33.3598 243.356 32.714C242.6 32.0682 242.221 31.1641 242.221 30.0017V29.974C242.221 29.1437 242.406 28.4426 242.775 27.8706C243.162 27.2986 243.725 26.865 244.463 26.5698C245.201 26.2561 246.105 26.0716 247.176 26.0162V25.1029L253.431 26.6805L251.604 26.6528C250.958 26.6528 250.497 26.7358 250.22 26.9019C249.962 27.0679 249.833 27.317 249.833 27.6492V27.6768C249.833 28.0828 250.045 28.378 250.469 28.5625C250.912 28.7285 251.622 28.8669 252.6 28.9776L259.049 29.7249C262.186 30.0939 264.52 30.8689 266.051 32.0498C267.583 33.2306 268.348 35.0573 268.348 37.5297V37.6958C268.348 39.5778 267.813 41.1277 266.743 42.3455C265.691 43.5817 264.16 44.495 262.149 45.0855C260.156 45.6944 257.72 45.9988 254.842 45.9988H253.79ZM254.344 21.2282C255.432 21.2282 256.327 21.0898 257.028 20.813C257.748 20.5178 258.283 20.0934 258.634 19.5399C259.003 18.9679 259.187 18.2852 259.187 17.4918V17.2427C259.187 16.4493 259.012 15.7758 258.661 15.2223C258.311 14.6688 257.776 14.2536 257.056 13.9769C256.355 13.6816 255.451 13.534 254.344 13.534H254.316C253.191 13.534 252.268 13.6816 251.548 13.9769C250.829 14.2721 250.294 14.6965 249.943 15.25C249.611 15.8035 249.445 16.477 249.445 17.2704V17.4918C249.445 18.2852 249.62 18.9679 249.971 19.5399C250.34 20.0934 250.884 20.5178 251.604 20.813C252.323 21.0898 253.237 21.2282 254.344 21.2282Z" fill="white"/>
<path d="M285.062 36.0905C280.117 36.0905 276.463 34.9927 274.102 32.797C271.74 30.5829 270.559 27.3632 270.559 23.1378V20.3148C270.559 16.1449 271.666 12.9528 273.88 10.7387C276.094 8.5061 279.314 7.3898 283.539 7.3898C286.381 7.3898 288.743 7.87876 290.625 8.85667C292.525 9.81613 293.946 11.1907 294.887 12.9805C295.846 14.7703 296.326 16.9198 296.326 19.4292V20.3425C296.326 21.0436 296.289 21.7632 296.215 22.5013C296.16 23.2209 296.077 23.8943 295.966 24.5217H288.327C288.401 23.4515 288.447 22.4459 288.466 21.5049C288.484 20.5455 288.493 19.6783 288.493 18.9033C288.493 17.7778 288.318 16.8368 287.968 16.0803C287.617 15.3053 287.073 14.7149 286.335 14.309C285.615 13.9031 284.683 13.7001 283.539 13.7001C281.842 13.7001 280.596 14.1614 279.803 15.0839C279.028 15.988 278.641 17.2796 278.641 18.9587V21.4496L278.696 22.3629V24.3003C278.696 25.0014 278.807 25.6657 279.028 26.293C279.268 26.9203 279.674 27.4739 280.246 27.9536C280.836 28.4149 281.639 28.7839 282.654 29.0607C283.687 29.319 284.997 29.4481 286.584 29.4481C288.263 29.4481 289.877 29.2913 291.427 28.9776C292.977 28.6455 294.462 28.2027 295.883 27.6492L295.191 34.0148C293.937 34.6606 292.451 35.168 290.735 35.537C289.019 35.906 287.128 36.0905 285.062 36.0905ZM275.043 24.5217V19.2908H294.25V24.5217H275.043Z" fill="white"/>
<path d="M318.399 35.3986V19.4015C318.399 18.4051 318.27 17.5472 318.012 16.8276C317.754 16.0895 317.32 15.5268 316.711 15.1393C316.102 14.7518 315.272 14.5581 314.22 14.5581C313.353 14.5581 312.587 14.7149 311.923 15.0286C311.259 15.3238 310.696 15.7389 310.235 16.274C309.792 16.7907 309.46 17.3811 309.238 18.0453L307.938 14.0876H309.377C309.672 12.8513 310.152 11.7443 310.816 10.7664C311.499 9.78845 312.43 9.0135 313.611 8.44152C314.792 7.85108 316.287 7.55586 318.095 7.55586C320.125 7.55586 321.785 7.95256 323.077 8.74596C324.368 9.52091 325.319 10.6833 325.927 12.2332C326.555 13.7831 326.868 15.7205 326.868 18.0453V35.3986H318.399ZM300.908 35.3986V8.19243H309.321L309.045 15.0009L309.377 15.8035V35.3986H300.908Z" fill="white"/>
<path d="M343.029 36.0075C340.612 36.0075 338.684 35.6477 337.245 34.9281C335.824 34.1901 334.8 33.0922 334.173 31.6346C333.545 30.177 333.232 28.378 333.232 26.2376V11.0431H341.645V24.8815C341.645 26.21 341.94 27.1879 342.531 27.8152C343.14 28.4241 344.265 28.7285 345.907 28.7285C346.812 28.7285 347.706 28.6271 348.592 28.4241C349.478 28.2211 350.28 27.9628 351 27.6492L350.28 34.6514C349.339 35.0573 348.251 35.3802 347.015 35.62C345.797 35.8784 344.468 36.0075 343.029 36.0075ZM329.578 14.9455V8.30313H350.751L350.004 14.9455H329.578ZM333.342 8.91202L333.315 1.88214L341.701 1.07951L341.396 8.91202H333.342Z" fill="white"/>
<path d="M138.925 90.2749V86.4001H147.505C150.642 86.4001 152.994 85.5514 154.562 83.8539C156.149 82.1379 156.943 79.6931 156.943 76.5195V68.6317C156.943 65.4396 156.149 62.9949 154.562 61.2973C152.994 59.5998 150.642 58.7511 147.505 58.7511H138.897V54.904H147.671C152.247 54.904 155.706 56.0849 158.05 58.4466C160.393 60.7899 161.565 64.1757 161.565 68.604V76.5472C161.565 80.957 160.393 84.352 158.05 86.7322C155.706 89.094 152.247 90.2749 147.671 90.2749H138.925ZM135.825 90.2749V54.904H140.364V90.2749H135.825Z" fill="white"/>
<path d="M168.14 90.2749V63.2624H172.624V90.2749H168.14ZM170.382 58.8341C169.46 58.8341 168.768 58.5943 168.306 58.1145C167.864 57.6163 167.642 56.9429 167.642 56.0941V55.9557C167.642 55.0885 167.864 54.4151 168.306 53.9353C168.768 53.4556 169.46 53.2157 170.382 53.2157C171.305 53.2157 171.997 53.4556 172.458 53.9353C172.919 54.4151 173.15 55.0885 173.15 55.9557V56.0941C173.15 56.9613 172.919 57.6348 172.458 58.1145C171.997 58.5943 171.305 58.8341 170.382 58.8341Z" fill="white"/>
<path d="M190.575 82.1933C186.903 82.1933 184.08 81.3906 182.106 79.7854C180.15 78.1801 179.172 75.883 179.172 72.8939V72.202C179.172 70.3384 179.55 68.7147 180.307 67.3309C181.082 65.947 182.309 64.8676 183.988 64.0927C185.667 63.2993 187.863 62.8657 190.575 62.7919L204.358 62.3491V65.8917L196.221 65.6149L196.193 65.8086C197.466 66.067 198.509 66.5098 199.321 67.1371C200.133 67.7645 200.732 68.5486 201.12 69.4897C201.526 70.4307 201.729 71.5285 201.729 72.7832V73.3921C201.729 76.252 200.788 78.4385 198.906 79.9514C197.024 81.446 194.247 82.1933 190.575 82.1933ZM190.381 97.0833H191.018C192.678 97.0833 194.099 96.9542 195.28 96.6959C196.479 96.456 197.402 96.0685 198.048 95.5334C198.693 94.9984 199.016 94.288 199.016 93.4023V93.2916C199.016 92.2584 198.638 91.465 197.882 90.9114C197.144 90.3764 195.87 90.0258 194.062 89.8597L186.423 89.1678L187.697 89.1124C186.663 89.26 185.75 89.4999 184.957 89.832C184.182 90.1642 183.573 90.5978 183.13 91.1328C182.687 91.6864 182.466 92.3691 182.466 93.1809V93.2363C182.466 94.1773 182.789 94.9338 183.434 95.5058C184.08 96.0777 184.993 96.4837 186.174 96.7235C187.355 96.9634 188.758 97.0833 190.381 97.0833ZM190.132 100.654C187.697 100.654 185.593 100.441 183.822 100.017C182.069 99.6111 180.704 98.9377 179.726 97.9967C178.766 97.0741 178.287 95.8287 178.287 94.2603V94.1496C178.287 93.0425 178.545 92.12 179.061 91.3819C179.597 90.6439 180.307 90.0627 181.193 89.6383C182.097 89.2139 183.102 88.9279 184.209 88.7803L184.182 88.6143C182.669 88.3559 181.552 87.9131 180.833 87.2858C180.113 86.64 179.753 85.8097 179.753 84.7949V84.7672C179.753 84.0661 179.91 83.4664 180.224 82.9682C180.556 82.47 181.045 82.0733 181.691 81.7781C182.355 81.4829 183.195 81.2984 184.209 81.2246V80.671L189.357 81.9718L187.254 81.9165C185.999 81.9349 185.132 82.0918 184.652 82.387C184.172 82.6638 183.933 83.0881 183.933 83.6601V83.6878C183.933 84.2967 184.274 84.758 184.957 85.0716C185.639 85.3853 186.802 85.6344 188.444 85.8189L195.003 86.4831C197.863 86.7784 199.948 87.4703 201.258 88.5589C202.568 89.6291 203.223 91.2159 203.223 93.3193V93.4577C203.223 95.1367 202.725 96.5113 201.729 97.5815C200.732 98.6517 199.321 99.4266 197.494 99.9064C195.667 100.405 193.481 100.654 190.935 100.654H190.132ZM190.52 78.8721C192.07 78.8721 193.352 78.6506 194.367 78.2078C195.4 77.7465 196.175 77.0638 196.692 76.1597C197.227 75.2372 197.494 74.1117 197.494 72.7832V72.1189C197.494 70.8274 197.236 69.7295 196.719 68.8254C196.221 67.9213 195.465 67.2386 194.45 66.7773C193.435 66.2976 192.162 66.0577 190.63 66.0577H190.464C188.804 66.0577 187.447 66.3161 186.396 66.8327C185.363 67.3309 184.606 68.0412 184.126 68.9638C183.665 69.8679 183.434 70.9288 183.434 72.1466V72.7832C183.434 74.1117 183.693 75.228 184.209 76.1321C184.744 77.0362 185.538 77.7189 186.59 78.1801C187.641 78.6414 188.951 78.8721 190.52 78.8721Z" fill="white"/>
<path d="M208.52 90.2749V63.2624H213.004V90.2749H208.52ZM210.762 58.8341C209.84 58.8341 209.148 58.5943 208.686 58.1145C208.244 57.6163 208.022 56.9429 208.022 56.0941V55.9557C208.022 55.0885 208.244 54.4151 208.686 53.9353C209.148 53.4556 209.84 53.2157 210.762 53.2157C211.685 53.2157 212.377 53.4556 212.838 53.9353C213.299 54.4151 213.53 55.0885 213.53 55.9557V56.0941C213.53 56.9613 213.299 57.6348 212.838 58.1145C212.377 58.5943 211.685 58.8341 210.762 58.8341Z" fill="white"/>
<path d="M230.263 90.8284C228.178 90.8284 226.499 90.5147 225.226 89.8874C223.953 89.26 223.03 88.3098 222.458 87.0367C221.886 85.7636 221.6 84.1768 221.6 82.2763V65.2274H226.028V81.7504C226.028 83.5217 226.434 84.8318 227.246 85.6805C228.058 86.5108 229.423 86.926 231.342 86.926C232.431 86.926 233.473 86.806 234.47 86.5662C235.485 86.3263 236.435 85.985 237.321 85.5421L236.905 89.3892C236.038 89.832 235.023 90.1826 233.861 90.4409C232.699 90.6992 231.499 90.8284 230.263 90.8284ZM217.172 67.2478V63.6499H237.044L236.629 67.2478H217.172ZM221.628 64.0927L221.6 56.5093L226.111 55.9281L225.918 64.0927H221.628Z" fill="white"/>
<path d="M258.301 90.2749L258.495 83.7155L258.329 83.0236V74.4161L258.357 72.8385C258.357 70.6428 257.794 69.0191 256.668 67.9674C255.561 66.9157 253.799 66.3899 251.382 66.3899C249.445 66.3899 247.664 66.6666 246.04 67.2202C244.435 67.7737 243.005 68.4195 241.751 69.1575L242.166 65.3382C242.867 64.9138 243.697 64.4986 244.657 64.0927C245.634 63.6683 246.742 63.3177 247.978 63.041C249.232 62.7642 250.607 62.6258 252.102 62.6258C254.039 62.6258 255.681 62.8657 257.028 63.3454C258.393 63.8067 259.491 64.4802 260.322 65.3658C261.17 66.2515 261.788 67.3216 262.176 68.5763C262.563 69.831 262.757 71.2333 262.757 72.7832V90.2749H258.301ZM249.002 90.8561C246.326 90.8561 244.269 90.2103 242.83 88.9187C241.409 87.6087 240.699 85.7451 240.699 83.328V82.5254C240.699 80.0345 241.465 78.1801 242.996 76.9624C244.546 75.7261 247 74.8682 250.358 74.3884L258.91 73.1707L259.159 76.4365L250.911 77.6266C248.845 77.9218 247.369 78.4292 246.483 79.1488C245.598 79.85 245.155 80.8925 245.155 82.2763V82.7191C245.155 84.1399 245.588 85.2285 246.456 85.985C247.341 86.7415 248.66 87.1197 250.413 87.1197C251.963 87.1197 253.292 86.8522 254.399 86.3171C255.506 85.782 256.401 85.0624 257.083 84.1583C257.766 83.2542 258.227 82.2486 258.467 81.1415L259.159 84.186H258.301C258.043 85.3669 257.554 86.4647 256.834 87.4795C256.133 88.4943 255.146 89.3154 253.873 89.9427C252.6 90.5516 250.976 90.8561 249.002 90.8561Z" fill="white"/>
<path d="M269.767 90.2749V53.6032H274.223V90.2749H269.767Z" fill="white"/>
</svg>

<svg xmlns="http://www.w3.org/2000/svg" width="351" height="101" fill="none"><path fill="#3083FF" d="M80.388 20.097V0H60.29v20.097H40.194v20.097H60.29V60.29h20.097V40.194h20.097V20.097H80.388ZM40.194 60.29V40.195H20.097v20.097H0v20.097h20.097v20.097h20.097V80.388H60.29V60.29H40.194Z"/><path fill="#fff" d="m146.785 0 9.576 25.96h.388l-.388-14.945V0h8.248V35.4h-11.597l-9.935-26.542h-.36l.387 15.277V35.4h-8.247V0h11.928ZM184.085 36.09c-4.945 0-8.598-1.097-10.96-3.293-2.362-2.214-3.543-5.434-3.543-9.66v-2.822c0-4.17 1.107-7.362 3.321-9.576 2.215-2.233 5.434-3.35 9.66-3.35 2.841 0 5.203.49 7.085 1.468 1.9.96 3.321 2.334 4.262 4.123.959 1.79 1.439 3.94 1.439 6.45v.913c0 .7-.037 1.42-.111 2.158-.055.72-.138 1.393-.249 2.02h-7.638c.073-1.07.12-2.075.138-3.016.018-.96.028-1.827.028-2.602 0-1.125-.176-2.066-.526-2.823a3.718 3.718 0 0 0-1.633-1.771c-.72-.406-1.651-.609-2.795-.609-1.698 0-2.943.461-3.737 1.384-.775.904-1.162 2.196-1.162 3.875v2.49l.055.914V24.3c0 .701.111 1.366.332 1.993.24.627.646 1.18 1.218 1.66.59.462 1.393.83 2.408 1.108 1.033.258 2.343.387 3.93.387 1.679 0 3.294-.157 4.843-.47a28.95 28.95 0 0 0 4.456-1.329l-.692 6.366c-1.254.646-2.74 1.153-4.455 1.522-1.716.369-3.608.553-5.674.553Zm-10.019-11.568V19.29h19.207v5.23h-19.207ZM203.01 35.399l-5.453-27.207h8.58l3.377 21.229h.498l3.321-20.564h10.351l3.377 20.564h.47l3.404-21.229h8.497L233.98 35.4h-12.04l-2.74-17.326-.47-3.044h-.388l-.498 3.044-2.74 17.326H203.01ZM254.621 26.93c-4.373 0-7.658-.812-9.853-2.436-2.196-1.624-3.294-3.902-3.294-6.836v-.36c0-1.993.443-3.672 1.329-5.037.904-1.384 2.288-2.454 4.151-3.21 1.864-.757 4.253-1.21 7.168-1.357l14.531-.664v5.978l-7.224-.194v.277c1.236.203 2.251.554 3.045 1.052.811.48 1.411 1.116 1.799 1.91.405.775.608 1.734.608 2.878v.194c0 2.527-1.005 4.465-3.016 5.812-1.993 1.328-5.074 1.993-9.244 1.993Zm-.416 12.87h.831c1.328 0 2.398-.084 3.21-.25.831-.166 1.439-.415 1.827-.747.387-.332.581-.747.581-1.246v-.055c0-.646-.277-1.107-.83-1.384-.535-.276-1.347-.461-2.436-.553l-8.026-.803 1.854-.11a4.555 4.555 0 0 0-1.439.47 2.943 2.943 0 0 0-.941.83c-.221.332-.332.738-.332 1.218v.055c0 .554.203 1.024.609 1.412.406.387 1.024.673 1.854.858.849.203 1.928.304 3.238.304Zm-.415 6.199c-2.73 0-5.065-.222-7.002-.664-1.919-.425-3.376-1.108-4.373-2.049-.996-.94-1.494-2.186-1.494-3.736v-.11c0-1.052.23-1.938.692-2.657.461-.72 1.125-1.283 1.992-1.689.867-.406 1.882-.655 3.045-.747v-.277c-1.421-.258-2.519-.71-3.294-1.356-.756-.646-1.135-1.55-1.135-2.712v-.028c0-.83.185-1.531.554-2.103.387-.572.95-1.006 1.688-1.301.738-.314 1.642-.498 2.713-.554v-.913l6.255 1.577-1.827-.027c-.646 0-1.107.083-1.384.249-.258.166-.387.415-.387.747v.028c0 .406.212.701.636.886.443.166 1.153.304 2.131.415l6.449.747c3.137.369 5.471 1.144 7.002 2.325 1.532 1.18 2.297 3.007 2.297 5.48v.166c0 1.882-.535 3.432-1.605 4.65-1.052 1.236-2.583 2.149-4.594 2.74-1.993.608-4.429.913-7.307.913h-1.052Zm.554-24.77c1.088 0 1.983-.14 2.684-.416.72-.295 1.255-.72 1.606-1.273.369-.572.553-1.255.553-2.048v-.25c0-.793-.175-1.466-.526-2.02-.35-.553-.885-.968-1.605-1.245-.701-.295-1.605-.443-2.712-.443h-.028c-1.125 0-2.048.148-2.768.443-.719.295-1.254.72-1.605 1.273-.332.553-.498 1.227-.498 2.02v.222c0 .793.175 1.476.526 2.048.369.553.913.978 1.633 1.273.719.277 1.633.415 2.74.415ZM285.062 36.09c-4.945 0-8.599-1.097-10.96-3.293-2.362-2.214-3.543-5.434-3.543-9.66v-2.822c0-4.17 1.107-7.362 3.321-9.576 2.214-2.233 5.434-3.35 9.659-3.35 2.842 0 5.204.49 7.086 1.468 1.9.96 3.321 2.334 4.262 4.123.959 1.79 1.439 3.94 1.439 6.45v.913c0 .7-.037 1.42-.111 2.158-.055.72-.138 1.393-.249 2.02h-7.639c.074-1.07.12-2.075.139-3.016.018-.96.027-1.827.027-2.602 0-1.125-.175-2.066-.525-2.823a3.718 3.718 0 0 0-1.633-1.771c-.72-.406-1.652-.609-2.796-.609-1.697 0-2.943.461-3.736 1.384-.775.904-1.162 2.196-1.162 3.875v2.49l.055.914V24.3c0 .701.111 1.366.332 1.993.24.627.646 1.18 1.218 1.66.59.462 1.393.83 2.408 1.108 1.033.258 2.343.387 3.93.387a24.36 24.36 0 0 0 4.843-.47 28.984 28.984 0 0 0 4.456-1.329l-.692 6.366c-1.254.646-2.74 1.153-4.456 1.522-1.716.369-3.607.553-5.673.553Zm-10.019-11.568V19.29h19.207v5.23h-19.207ZM318.399 35.399V19.4c0-.996-.129-1.854-.387-2.573-.258-.738-.692-1.301-1.301-1.689-.609-.387-1.439-.58-2.491-.58-.867 0-1.633.156-2.297.47a4.736 4.736 0 0 0-1.688 1.245 5.247 5.247 0 0 0-.997 1.771l-1.3-3.957h1.439c.295-1.237.775-2.344 1.439-3.322.683-.978 1.614-1.752 2.795-2.324 1.181-.59 2.676-.886 4.484-.886 2.03 0 3.69.397 4.982 1.19 1.291.775 2.242 1.937 2.85 3.487.628 1.55.941 3.487.941 5.812V35.4h-8.469Zm-17.491 0V8.192h8.413l-.276 6.809.332.803v19.595h-8.469ZM343.029 36.008c-2.417 0-4.345-.36-5.784-1.08-1.421-.738-2.445-1.836-3.072-3.293-.628-1.458-.941-3.257-.941-5.397V11.043h8.413v13.838c0 1.329.295 2.307.886 2.934.609.61 1.734.913 3.376.913.905 0 1.799-.1 2.685-.304A13.672 13.672 0 0 0 351 27.65l-.72 7.002c-.941.406-2.029.73-3.265.969-1.218.258-2.547.388-3.986.388Zm-13.451-21.063V8.303h21.173l-.747 6.642h-20.426Zm3.764-6.033-.027-7.03 8.386-.802-.305 7.832h-8.054ZM138.925 90.275V86.4h8.58c3.137 0 5.489-.849 7.057-2.546 1.587-1.716 2.381-4.16 2.381-7.335v-7.887c0-3.192-.794-5.637-2.381-7.335-1.568-1.697-3.92-2.546-7.057-2.546h-8.608v-3.847h8.774c4.576 0 8.035 1.18 10.379 3.543 2.343 2.343 3.515 5.729 3.515 10.157v7.943c0 4.41-1.172 7.805-3.515 10.185-2.344 2.362-5.803 3.543-10.379 3.543h-8.746Zm-3.1 0V54.904h4.539v35.37h-4.539ZM168.14 90.275V63.262h4.484v27.013h-4.484Zm2.242-31.44c-.922 0-1.614-.24-2.076-.72-.442-.499-.664-1.172-.664-2.02v-.14c0-.866.222-1.54.664-2.02.462-.48 1.154-.72 2.076-.72.923 0 1.615.24 2.076.72.461.48.692 1.154.692 2.02v.14c0 .866-.231 1.54-.692 2.02-.461.48-1.153.72-2.076.72ZM190.575 82.193c-3.672 0-6.495-.802-8.469-2.408-1.956-1.605-2.934-3.902-2.934-6.891v-.692c0-1.864.378-3.487 1.135-4.871.775-1.384 2.002-2.463 3.681-3.238 1.679-.794 3.875-1.227 6.587-1.301l13.783-.443v3.543l-8.137-.277-.028.194c1.273.258 2.316.7 3.128 1.328a5.643 5.643 0 0 1 1.799 2.353c.406.94.609 2.038.609 3.293v.61c0 2.859-.941 5.046-2.823 6.558-1.882 1.495-4.659 2.242-8.331 2.242Zm-.194 14.89h.637c1.66 0 3.081-.129 4.262-.387 1.199-.24 2.122-.627 2.768-1.163.645-.535.968-1.245.968-2.13v-.111c0-1.034-.378-1.827-1.134-2.38-.738-.536-2.012-.886-3.82-1.052l-7.639-.692 1.274-.056c-1.034.148-1.947.388-2.74.72-.775.332-1.384.766-1.827 1.3-.443.554-.664 1.237-.664 2.049v.055c0 .941.323 1.698.968 2.27.646.572 1.559.978 2.74 1.218 1.181.24 2.584.36 4.207.36Zm-.249 3.571c-2.435 0-4.539-.213-6.31-.637-1.753-.406-3.118-1.08-4.096-2.02-.96-.923-1.439-2.168-1.439-3.737v-.11c0-1.108.258-2.03.774-2.768.536-.738 1.246-1.32 2.132-1.744.904-.424 1.909-.71 3.016-.858l-.027-.166c-1.513-.258-2.63-.7-3.349-1.328-.72-.646-1.08-1.476-1.08-2.491v-.028c0-.7.157-1.3.471-1.799.332-.498.821-.895 1.467-1.19.664-.295 1.504-.48 2.518-.553v-.554l5.148 1.3-2.103-.055c-1.255.019-2.122.176-2.602.471-.48.277-.719.701-.719 1.273v.028c0 .609.341 1.07 1.024 1.384.682.313 1.845.562 3.487.747l6.559.664c2.86.295 4.945.987 6.255 2.076 1.31 1.07 1.965 2.657 1.965 4.76v.139c0 1.679-.498 3.053-1.494 4.124-.997 1.07-2.408 1.845-4.235 2.324-1.827.499-4.013.748-6.559.748h-.803Zm.388-21.782c1.55 0 2.832-.221 3.847-.664 1.033-.462 1.808-1.144 2.325-2.048.535-.923.802-2.048.802-3.377v-.664c0-1.292-.258-2.39-.775-3.294-.498-.904-1.254-1.586-2.269-2.048-1.015-.48-2.288-.72-3.82-.72h-.166c-1.66 0-3.017.26-4.068.776-1.033.498-1.79 1.208-2.27 2.13-.461.905-.692 1.966-.692 3.184v.636c0 1.329.259 2.445.775 3.35.535.903 1.329 1.586 2.381 2.047 1.051.461 2.361.692 3.93.692ZM208.52 90.275V63.262h4.484v27.013h-4.484Zm2.242-31.44c-.922 0-1.614-.24-2.076-.72-.442-.499-.664-1.172-.664-2.02v-.14c0-.866.222-1.54.664-2.02.462-.48 1.154-.72 2.076-.72.923 0 1.615.24 2.076.72.461.48.692 1.154.692 2.02v.14c0 .866-.231 1.54-.692 2.02-.461.48-1.153.72-2.076.72ZM230.263 90.828c-2.085 0-3.764-.313-5.037-.94-1.273-.628-2.196-1.578-2.768-2.851-.572-1.273-.858-2.86-.858-4.76v-17.05h4.428V81.75c0 1.772.406 3.082 1.218 3.93.812.83 2.177 1.246 4.096 1.246 1.089 0 2.131-.12 3.128-.36a13.078 13.078 0 0 0 2.851-1.024l-.416 3.847c-.867.443-1.882.794-3.044 1.052a16.537 16.537 0 0 1-3.598.387Zm-13.091-23.58V63.65h19.872l-.415 3.598h-19.457Zm4.456-3.155-.028-7.584 4.511-.58-.193 8.164h-4.29ZM258.301 90.275l.194-6.56-.166-.691v-8.608l.028-1.578c0-2.195-.563-3.819-1.689-4.87-1.107-1.052-2.869-1.578-5.286-1.578-1.937 0-3.718.277-5.342.83-1.605.554-3.035 1.2-4.289 1.938l.415-3.82c.701-.424 1.531-.84 2.491-1.245.977-.425 2.085-.775 3.321-1.052 1.254-.277 2.629-.415 4.124-.415 1.937 0 3.579.24 4.926.72 1.365.46 2.463 1.134 3.294 2.02.848.885 1.466 1.956 1.854 3.21.387 1.255.581 2.657.581 4.207v17.492h-4.456Zm-9.299.581c-2.676 0-4.733-.646-6.172-1.937-1.421-1.31-2.131-3.174-2.131-5.591v-.803c0-2.49.766-4.345 2.297-5.563 1.55-1.236 4.004-2.094 7.362-2.574l8.552-1.217.249 3.265-8.248 1.19c-2.066.296-3.542.803-4.428 1.523-.885.701-1.328 1.743-1.328 3.127v.443c0 1.42.433 2.51 1.301 3.266.885.757 2.204 1.135 3.957 1.135 1.55 0 2.879-.268 3.986-.803 1.107-.535 2.002-1.255 2.684-2.159a7.627 7.627 0 0 0 1.384-3.017l.692 3.045h-.858a8.941 8.941 0 0 1-1.467 3.293c-.701 1.015-1.688 1.836-2.961 2.464-1.273.609-2.897.913-4.871.913ZM269.767 90.275V53.603h4.456v36.672h-4.456Z"/></svg>
